vsi/pin_light.svg

<svg viewBox="0 0 16 16" fill="none" xmlns="http://www.w3.org/2000/svg" height="1em" width="1em">
  <g clip-path="url(#a)">
    <path d="M15.4184 4.50005L14.5525 4.12501L13.0934 5.58411L9.0775 4.93638C8.89279 4.41665 8.56698 3.95859 8.13659 3.61361C7.7091 3.2727 7.19373 3.05996 6.65024 3L6.15244 3.4978L6.20708 7.31591L0.500244 7.30913L1.53658 8.34546L6.22743 8.3455L6.26838 11.7L6.78657 12.2182C7.32041 12.1748 7.8294 11.9743 8.24929 11.6418C8.66917 11.3093 8.98112 10.8597 9.14567 10.35L13.148 9.82499L14.648 11.325L15.5002 10.9773L15.4184 4.50005ZM13.6934 8.95233L13.257 8.80226L8.74338 9.40226L8.35474 9.70909C8.17601 10.2805 7.79872 10.769 7.29111 11.0864V8.35915L7.23655 4.17275C7.74956 4.50768 8.13596 5.00445 8.33431 5.58411L8.73656 5.90463L13.2706 6.63413L13.6934 6.49772L14.4775 5.71362L14.532 9.75L13.6934 8.95233Z" fill="#424242"/>
  </g>
  <defs>
    <clipPath id="a">
      <rect width="16" height="16" fill="white" transform="translate(0.000244141)"/>
    </clipPath>
  </defs>
</svg>

<svg viewBox="0 0 16 16" fill="none" xmlns="http://www.w3.org/2000/svg" height="1em" width="1em">
  <g clip-path="url(#a)">
    <path d="m15.418 4.5-.865-.375-1.46 1.46-4.015-.649a2.97 2.97 0 0 0-.941-1.322A2.893 2.893 0 0 0 6.65 3l-.498.498.055 3.818L.5 7.309l1.037 1.036h4.69l.041 3.355.519.518a2.71 2.71 0 0 0 2.359-1.868l4.002-.525 1.5 1.5.852-.348-.082-6.477Zm-1.725 4.452-.436-.15-4.514.6-.388.307a2.507 2.507 0 0 1-1.064 1.377V8.36l-.054-4.186c.513.335.899.831 1.097 1.411l.403.32 4.534.73.422-.136.784-.784.055 4.036-.839-.798Z" fill="#424242"/>
  </g>
  <defs>
    <clipPath id="a">
      <path fill="#fff" d="M0 0h16v16H0z"/>
    </clipPath>
  </defs>
</svg>
